!!!ONB: MCCC : ILB0193_02 : Extracted Monophonic Melody
!!!COM: Beethoven, Ludwig van
!!!OPR: Piano Sonata No.32
!!!OMV: 2
!!!SCT: Op.111
!!!ODT: 1821///
**kern
*thru
*staff1
*>A
*clefG2
*k[]
*C:
*M9/16
*MM40
8cc
16g
=1
4.g
8dd
16g
=2
4.g
8.g
=3
8.g
8.ee
8.cc
=4
8.cc
8.b
8.b
=5
8.cc
8.ee
8.gg
=6
8.gg
8.ff
8dd
16cc
=7
8.b
8.cc
8dd
[16g
=8
*>A1
4.g]
*>A
*M9/16
8cc
16g
=9
4.g
8dd
16g
=10
4.g
8.g
=11
8.g
8.ee
8.cc
=12
8.cc
8.b
8.b
=13
8.cc
8.ee
8.gg
=14
8.gg
8.ff
8dd
16cc
=15
8.b
8.cc
8dd
[16g
=16
*>A2
4.g]
8.e
=17
*>B
4.cc
8cc
16b
=18
4.b
8b
16ee
=19
8.ee
8.ee
8dd
16cc
=20
8.cc
8.b
8.cc
=21
4.dd
8.dd
=22
4.ee
8.ff
=23
8.dd
8.dd
8dd
16gg
=24
*>B1
8dd
16ee
8.ee
8.e
=25
*>B
4.cc
8cc
16b
=26
4.b
8b
16ee
=27
8.ee
8.ee
8dd
16cc
=28
8.cc
8.b
8.cc
=29
4.dd
8.dd
=30
4.ee
8.ff
=31
8.dd
8.dd
8dd
16gg
=32
*>B2
8gg
16ee
8.ee
8cc
16e
=33
*>C
8a
16e
8g
16f
8dd
16d
=34
8g
16d
8f
16e
8g
16f
=35
8a
16g
8ee
16e
8cc
16e
=36
8cc
16b
8a
16g
8a
16b
=37
8cc
16e
8ee
16g
8gg
16b-
=38
8gg
16a
8ff
16a
8dd
16cc
=39
8cc
16b
8cc
16cc#
16cc#
16dd
16g
=40
*>C1
4g
16d
16B
8cc
16e
=41
*>C
8a
16e
8g
16f
8dd
16d
=42
8g
16d
8f
16e
8g
16f
=43
8a
16g
8ee
16e
8cc
16e
=44
8cc
16b
8a
16g
8a
16b
=45
8cc
16e
8ee
16g
8gg
16b-
=46
8gg
16a
8ff
16a
8dd
16cc
=47
8cc
16b
8cc
16cc#
16cc#
16dd
16g
=48
*>C2
8.g
16g
16g#
16a
16b
16e
16e
=49
8cc
16e
*>D
8f
16e
8cc
16e
=50
8b
16e[
16e]
16cc
16b
16cc
16dd
16ee
=51
8ff
16ee
8ee
16dd
16dd
16cc
[16cc
=52
16cc]
16b
16b
16b
16cc
16cc[
16cc]
16dd
16dd
=53
4.dd
8.dd#
=54
8.ee
8ee
16gg
8gg
16ff
=55
8ee
16dd
8cc#
16dd
16dd
16aa
16gg
=56
*>D1
16gg
16ff
16ee
16ff
16ee
16e
16f
16e
16e
=57
8cc
16e
*>D
8f
16e
8cc
16e
=58
8b
16e[
16e]
16cc
16b
16cc
16dd
16ee
=59
8ff
16ee
8ee
16dd
16dd
16cc
[16cc
=60
16cc]
16b
16b
16b
16cc
16cc[
16cc]
16dd
16dd
=61
4.dd
8.dd#
=62
8.ee
8ee
16gg
8gg
16ff
=63
8ee
16dd
8cc#
16dd
16dd
16aa
16gg
=64
*M6/16
*>D2
16gg
16ff
16ee
16ff
16ee
16ee
*>E
=65
24ee
48cc
24b
48cc
24dd
48b
24a#
48b
8r
=66
8r
24g
48e
24d#
48e
24g
48e
24g
48f
=67
24a
48f#
24a
48g
8ee
8cc
=68
24cc
48b
24dd
48cc
24cc
48a#
24cc
48b
8b
=69
8cc
24ee
48dd
24ff
48ee
8gg[
=70
16gg]
16gg[
24gg]
48ee
24gg
48ff
24ee
48cc#
24ee
48dd
=71
16cc
16b
16cc
16cc#
16dd
24dd
48g
=72
*>E1
16g
16g[
16g]
16g
8r
=74
24ee
48cc
24b
48cc
24dd
48b
24a#
48b
8r
=75
8r
24g
48e
24d#
48e
24g
48e
24g
48f
=76
24a
48f#
24a
48g
8ee
8cc
=77
24cc
48b
24dd
48cc
24cc
48a#
24cc
48b
8b
=78
8cc
24ee
48dd
24ff
48ee
8gg[
=79
16gg]
16gg[
24gg]
48ee
24gg
48ff
24ee
48cc#
24ee
48dd
=80
16cc
16b
16cc
16cc#
16dd
24dd
48g
=81
*>E2
16g
16g[
24g]
48g#
24a
48b
24e
48e
24e
48e
=82
*>F
16cc
24cc
48b
16cc
24cc
48b
16cc
24cc
48b
=83
16b
24b
48cc
16b
24b
48cc
16b[
24b]
48ee
=84
[16ee
24ee]
48ee
[16ee
24ee]
48dd
24dd
48cc
24cc
48b
=85
24b
48b[
24b]
48b[
24b]
48cc[
24cc]
48cc[
24cc]
48dd[
24dd]
48ddd
=86
24ddd
48dd
24cc#
48dd
24dd
48dd
24a#
48b
24dd
48dd#
24ff
48ee
=87
8ee[
16ee]
16ee
24ee
48ee
24gg
48ff
=88
24dd
48ff#
24aa
[48gg
16gg]
24aa
[48gg
24gg]
48ff
24aa
48gg
=89
*>F1
16gg[
24gg]
48ff
16ee
24c
48d
24c
[48e
24e]
48e
=90
*>F
16cc
24cc
48b
16cc
24cc
48b
16cc
24cc
48b
=91
16b
24b
48cc
16b
24b
48cc
16b[
24b]
48ee
=92
[16ee
24ee]
48ee
[16ee
24ee]
48dd
24dd
48cc
24cc
48b
=93
24b
48b[
24b]
48b[
24b]
48cc[
24cc]
48cc[
24cc]
48dd[
24dd]
48ddd
=94
24ddd
48dd
24cc#
48dd
24dd
48dd
24a#
48b
24dd
48dd#
24ff
48ee
=95
8ee[
16ee]
16ee
24ee
48ee
24gg
48ff
=96
24dd
48ff#
24aa
[48gg
16gg]
24aa
[48gg
24gg]
48ff
24aa
48gg
=97
*>F2
16gg[
24gg]
48ff
24ee
[48gg
24gg]
48gg
*>G
*M12/32
*MM30
48ccc
96gg
48ee
96cc
48g
96e
48c
96G
=98
[32g
48g]
[96g
32g_
48g]
96g
[32g
48g]
[96g
32g_
48g]
96g
48fff
96ddd
48bb
96gg
48ff
96dd
48b
96g
=99
[32g
48g]
[96g
32g_
48g]
96g
[32g
48g]
[96g
32g_
48g]
96g
48ggg
96eee
48ccc
96gg
48ee
96cc
48g
96gg
=100
[32gg
48gg]
[96gg
32gg_
48gg]
96gg
[32gg
48gg]
[96gg
32gg_
48gg]
96gg
[32eee
48eee]
[96eee
32eee_
48eee]
96ccc
=101
48ccc
96aa
48ff#
96ee-
48cc
96a
48f#
96cc
48bb
96gg
48dd
96b
48g
96d
48B
[96bb
32bb_
48bb]
[96bb
32bb_
48bb]
96bb
=102
48ccc
96gg
48ee
96cc
48g
96e
48ee
96cc
48ee
96cc
48gg
96ee
48cc
96g
48ee
96cc
48gg
96ee
48ccc
96gg
48ee
96cc
48gg
96ee
=103
32r
48gg
96ee
48cc#
96ee
48gg
96ee
48ff
96dd
48ff
96a
48ff
96f
48a
96f
48a
96f
48ff
96dd
48a
96aa
48ff
96dd
=104
48cc
96b
48ff
96dd
48bb
96ff
48dd
96b
48dd
96cc
48aa-
96ff
48ccc
96aa
48ff
96cc
48ee-
96dd
48ddd
96dd
48ddd
96dd
48ddd
96gg
=105
*>G1
32gg[
48gg]
96gg
32gg[
48gg]
96gg
32gg[
48gg]
96gg
48ff
96gg
48aa
96bb
*>G
*M12/32
48ccc
96gg
48ee
96cc
48g
96e
48c
96G
=106
[32g
48g]
[96g
32g_
48g]
96g
[32g
48g]
[96g
32g_
48g]
96g
48fff
96ddd
48bb
96gg
48ff
96dd
48b
96g
=107
[32g
48g]
[96g
32g_
48g]
96g
[32g
48g]
[96g
32g_
48g]
96g
48ggg
96eee
48ccc
96gg
48ee
96cc
48g
96gg
=108
[32gg
48gg]
[96gg
32gg_
48gg]
96gg
[32gg
48gg]
[96gg
32gg_
48gg]
96gg
[32eee
48eee]
[96eee
32eee_
48eee]
96ccc
=109
48ccc
96aa
48ff#
96ee-
48cc
96a
48f#
96cc
48bb
96gg
48dd
96b
48g
96d
48B
[96bb
32bb_
48bb]
[96bb
32bb_
48bb]
96bb
=110
48ccc
96gg
48ee
96cc
48g
96e
48ee
96cc
48ee
96cc
48gg
96ee
48cc
96g
48ee
96cc
48gg
96ee
48ccc
96gg
48ee
96cc
48gg
96ee
=111
32r
48gg
96ee
48cc#
96ee
48gg
96ee
48ff
96dd
48ff
96a
48ff
96f
48a
96f
48a
96f
48ff
96dd
48a
96aa
48ff
96dd
=112
48cc
96b
48ff
96dd
48bb
96ff
48dd
96b
48dd
96cc
48aa-
96ff
48ccc
96aa
48ff
96cc
48ee-
96dd
48ddd
96dd
48ddd
96dd
48ddd
96gg
=113
*>G2
32gg[
48gg]
96gg
32gg[
48gg]
96gg
32gg[
48gg]
96gg
32gg[
48gg]
96gg
48gg#
96aa
48bb
[96e
48e]
96e
48e
96e
=114
*>H
[32cc
48cc]
[96cc
32cc_
48cc]
96cc
48ccc
96gg#
48aa
96ee
48dd
96cc
48ee
96cc
48b
96a
48cc
96a
48b
96a
48cc
96b
=115
[32b
48b]
[96b
32b_
48b]
96b
48ccc
96bb
48eee
96bb
48aa
96gg#
48bb
96ee
48bb
96ee
48ff
96dd
48cc
96b
48ee
96b
=116
48cc
96b
48ee
96b
48dd
96cc
48ee
96cc
48ee
96dd
48gg#
96dd
48ff
96ee
48aa
96ee
48aa
96ff
48aa
96b
48aa
96ff#
48aa
96cc
=117
48aa
96b
48aa
96gg
[16bb
48bb]
96cc
48bb
96aa
[16ccc
48ccc]
96dd
48ccc
96bb
[32ddd
48ddd]
96ddd
=118
[32ddd
48ddd]
[96ddd
32ddd_
48ddd]
96ddd[
48ddd]
96bb
48fff
96ddd
48ccc
96bb
48ddd
96bb
48gg
96ff
48aa
96ff
48ee
96dd
48ff
96dd
=119
32ee
48ee
96ee
32ee
48ee
96ee[
48ee]
96b
48cc
96dd
16ee
48ee
96cc#
48dd
96ee
16ff[
=120
48ff]
96cc#
48dd
96ee
[16dd
48dd_
96dd]
48dd
96ee
16dd[
48dd]
96ee
48ff
96ff#
16gg[
=121
*>H1
48gg]
96aa
48gg
96aa
48gg
96ff
48ee
96ff
48ee
96ff
48ee
96dd
48cc
96b
48cc
96ee
48e
96ee
48e
96dd
48e
96cc
48e
96b
=122
*>H
[32cc
48cc]
[96cc
32cc_
48cc]
96cc
48ccc
96gg#
48aa
96ee
48dd
96cc
48ee
96cc
48b
96a
48cc
96a
48b
96a
48cc
96b
=123
[32b
48b]
[96b
32b_
48b]
96b
48ccc
96bb
48eee
96bb
48aa
96gg#
48bb
96ee
48bb
96ee
48ff
96dd
48cc
96b
48ee
96b
=124
48cc
96b
48ee
96b
48dd
96cc
48ee
96cc
48ee
96dd
48gg#
96dd
48ff
96ee
48aa
96ee
48aa
96ff
48aa
96b
48aa
96ff#
48aa
96cc
=125
48aa
96b
48aa
96gg
[16bb
48bb]
96cc
48bb
96aa
[16ccc
48ccc]
96dd
48ccc
96bb
[32ddd
48ddd]
96ddd
=126
[32ddd
48ddd]
[96ddd
32ddd_
48ddd]
96ddd[
48ddd]
96bb
48fff
96ddd
48ccc
96bb
48ddd
96bb
48gg
96ff
48aa
96ff
48ee
96dd
48ff
96dd
=127
32ee
48ee
96ee
32ee
48ee
96ee[
48ee]
96b
48cc
96dd
16ee
48ee
96cc#
48dd
96ee
16ff[
=128
48ff]
96cc#
48dd
96ee
[16dd
48dd_
96dd]
48dd
96ee
16dd[
48dd]
96ee
48ff
96ff#
16gg
=129
*>H2
48gg
96aa
48gg
96aa
48gg
96ff
48ee
96ff
48ee
96f
48e
96d
16c
=130
*>I
*M9/16
*MM40
16c
[16c
16c]
=131
16r
[16G
16G]
16r
[16G
16G]
16r
[16d
16d]
=132
16r
[16G
16G]
16r
[16G
16G]
16r
[16G
16G]
=133
16r
[16G
16G]
16r
[16e
16e]
16r
[16c
16c]
=134
16r
[16c
16c]
16r
[16B
16B]
16r
[16B
16B]
=135
16r
[16c
16c]
16r
[16e
16e]
16r
[16g
16g]
=136
16r
[16g
16g]
16r
[16f
16f]
16r
[16d
16d]
=137
16r
[16B
16B]
16r
[16c
16c]
16r
[16d
16d]
=138
48G
48A
48B
48c
48d
48e
48f
48g
48a
48b
48cc
48dd
48ee
48ff
48gg
48aa
48gg
48bb
48ccc
48ddd
48ccc
48bb
48ccc
48bb
48ccc
48ddd
48ccc
=139
48gg
48aa
48gg
48ff#
48gg
48ff#
48gg
48aa
48gg
48ff#
48gg
48ff#
48gg
48aa
48gg
48ccc#
48ddd
48ccc#
48ddd
48eee
48ddd
48ccc#
48ddd
48ccc#
48ddd
48eee
48ddd
=140
48ccc#
48ddd
48ccc#
48ddd
48eee
48ddd
48gg
48aa
48gg
48aa
48bb
48aa
48gg
48aa
48gg
48bb
48ccc
48bb
48ccc
48ddd
48ccc
48ddd
48eee
48ddd
48ddd
48eee#
48ddd
=141
48eee
48aa
48gg
48ff#
48aa
48gg
48ff#
48aa
48gg
48ff#
48gg
48gg#
48aa
48bb-
48bb
48ccc
48ccc#
48ddd
48eee
48fff
48eee
48ddd
48eee
48ddd
48ccc
48ddd
48ccc
=142
48bb
48ddd
48ccc
48aa#
48ccc
48bb
48ccc
48ddd
48ccc
48bb
48ccc
48bb
48aa#
48bb
48aa#
48bb
48ccc
48bb
48ccc#
48eee
48ddd
48eee
48fff
48eee
48fff
48ggg
48fff
=143
48gg
48ggg
48gg
48ccc
48ggg
48ccc
48bb
48ggg
48bb
48ccc
48ggg
48ddd
48ddd#
48ggg
48eee
48fff
48ggg
48fff
48ggg#
48aaa
48fff
48ggg#
48fff
48ggg#
48ccc#
48aaa
48ggg#
=144
48ccc#
48aaa
48ggg
48ccc#
48fff
48eee
48ccc#
48aaa
48ggg
48ccc#
48aaa
48ggg
48ddd
48ggg
48fff
48aa
48eee
48ddd
48aa-
48eee
48ddd
48gg
48eee
48ddd
48gg
48ddd
48ccc
=145
48gg
48ddd
48ccc
48ff
48ccc
48bb
48gg
48ddd
48ccc
48gg
48ddd
48ccc
48gg
48ddd
48ccc#
48aa
48eee
48ddd
48aa
48eee
48ddd
48bb
48eee
48ddd
48ccc#
48ddd
48gg
=146
48aa
48ff#
48gg
48aa
48ff#
48gg
48aa
48ff#
48gg
48aa
48ff#
48gg
48aa
48ff#
48gg
48aa
48gg#
48eee
48bb
48aa
48eee
48ccc
48bb
48eee
16r
=147
16r
[16c
16c]
16r
[16c
16c]
16r
[16c
16c]
=148
16r
[16B
16B]
16r
[16B
16B]
16r
[16e
16e]
=149
16r
[16e
16e]
16r
[16e
16e]
16r
16d
16c
=150
16r
[16c
16c]
16r
[16B
16B]
16r
[16c
16c]
=151
16r
[16d
16d]
16r
[16D
16D]
16r
[16d
16d]
=152
16r
[16e
16e]
16r
[16E
16E]
16r
[16f
16f]
=153
16r
[16D
16D]
16r
[16G
16G]
16r
[16g
16g]
=154
16r
16G
16E
16r
16e
16E
16r
16ee
16e
=155
16ee
48ccc
48ddd
48bb
48ccc
48bb
48aa
48gg#
48aa
48bb
48aa
48bb
48ccc
48bb
48ccc
48ddd
48ccc
48ddd
48ccc
48bb
48ccc
48ddd
48ccc
48bb
48aa
=156
48bb
48ccc
48ddd
48ccc
48bb
48aa
48gg#
48aa
48bb
48gg#
48aa
48bb
48aa
48bb
48ccc
48bb
48ccc
48ddd
48bb
48ccc
48ddd
48fff
48eee
48ddd
48ccc
48bb
48eee
=157
48aa
48gg#
48eee
48bb
48aa
48eee
48ccc
48bb
48eee
48ddd
48ccc
48eee
48ccc
48bb
48eee
48ddd
48ccc
48eee
48ddd
48ccc
48eee
48ccc
48bb
48ddd
48bb
48aa
48ccc
=158
48bb
48aa
48ccc
48bb
48ddd
48ccc
48bb
48aa
48ccc
48aa
48gg#
48bb
48aa
48ccc
48bb
48aa
48gg#
48bb
48ccc
48ddd
48ccc
48bb
48ccc
48bb
48ccc
48ddd
48ccc
=159
48ddd
48eee
48ccc#
48ddd
48bb
48ccc
48aa#
48bb
48aa
48bb
48aa
48ccc
48bb
48ddd
48ccc
48ddd
48ccc#
48eee-
48ddd
48eee
48ddd
48fff
48ddd
48eee
48ddd
48fff
48ddd
=160
48eee
48fff
48ddd
48eee#
48ccc#
48ddd
48bb
48ddd
48ccc
48ddd
48eee#
48ddd
48eee#
48fff
48eee#
48fff
48ddd#
48eee#
48fff
48ggg
48eee#
48fff
48eee#
48fff
48eee#
48ggg
48fff
=161
48ddd
48fff
48ddd
48fff
48ddd
48fff
48ddd
48fff
48ddd
48fff
48ddd
48fff
48ddd
48fff#
48ddd
48fff#
48ddd
48fff#
48ddd
48fff#
48ddd
48ggg
48ddd
48ggg
48ddd
48ggg
48ddd
=162
48ggg
48ddd
48ggg
48fff
48ggg
48ddd
48fff
48ddd
48eee
48ggg
48fff
48eee
48fff
48eee
48ddd
48fff
48eee
48ccc
48ggg
48fff
48eee
48fff
48eee
48ddd
48fff
48eee
48ccc
=163
48fff
48eee
48ddd
48eee
48ddd
48bb
48ddd
48ccc
48bb
48fff
48eee
48ddd
48eee
48ddd
48bb
48ddd
48ccc
48bb
48fff
48eee
48ddd
48eee
48ddd
48bb
48ddd
48ccc
48bb
=164
48ggg
48fff
48eee
48fff
48eee
48ddd
48fff
48eee
48ccc
8.r
48gg
48ff
48ee
48ff
48ee
48dd
48ff
48ee
48cc
=165
48ff
48ee
48dd
48ee
48dd
48b
48dd
48cc
48b
48ff
48ee
48dd
48ee
48dd
48b
48dd
48cc
48b
48ff
48ee
48dd
48ee
48dd
48b
48dd
48cc
48b
=166
8.r
8.ee
[8.ee
=167
8.ee]
8.eee
8.eee
=168
8.eee
8.fff
8ddd
48GGG
48AAA
48BBB
=169
48CC
48EE
48GG
16r
48c
48e
48g
48cc
48ee
48gg
48ee
48gg
48ccc
16eee[
48eee]
48bb
48ccc
48ddd
48bb
48ccc
48eee
48bb
48ccc
=170
16r
48AA
48C
48E
16r
48a
48cc
48ee
48cc
48ee
48aa
64ee
64aa
64ccc
64eee[
48eee]
48bb
48ccc
48ee
48bb
48ccc
48eee
48bb
48ccc
=171
16r
48eee
48ccc
48ee
48eee
48ccc#
48ee
16r
48fff
48ddd
48ff
48fff
48ddd
48ff
48eee
48ccc#
48ee
48fff
48ddd
48ff
48ddd
48bb
48dd
=172
[4.dd
8.dd_
=173
4.dd]
[8aa
16aa]
=174
4.gg
8aa-
16gg
=175
8.gg
8.gg
8.gg
=176
8.gg
8.aa-
[8.aa-
=177
8.aa-_
8.aa-]
8.aa-
=178
[4.aa-
8.aa-_
=179
4.aa-_
8.aa-_
=180
4.aa-]
[8.bb-
=181
8.bb-]
8.bb
[8.ccc
=182
*k[b-e-a-]
8.ccc]
8.ccc#
[8.ddd
=183
4.ddd_
8.ddd]
=184
*8va
8.eee-
8.ggg
8.bbb-[
=185
8bbb-]
16aaa
16aaa-
16aa-
*X8va
16gg
16gg
16ff
16ee-
=186
16ee-
8dd
16a-
8ee-
16a-
16ff
16b-
=187
8b-
16g
16g
16g
16g
16g
16g
16g
=188
16g
8b
16g
8cc
16g
16dd
16g
=189
8g
16e-
16e-
16e-
16e-
16e-
16e-
16e-
=190
16e-
8g
16e-
8a-
16e-
16b-
16e-
=191
8e-
16e-
16e-
16a
16d
8d
16d
=192
16d-
16g
16c
8c
16c
16c-
16f
16B-
=193
8B-
16B-
16B-
16e-
16A
8A
16d
=194
16d
16d
16G
16G
16G
16c
16c
16c
16F
=195
16F
16F
16B-
16B-
16B-
16E-
16E-
16E-
16c
=196
16e-
16e-
16cc
16cc
16cc
16b
8cc
16g
=197
4.g
8dd
16g
=198
*k[]
4.g
8.g
=199
8.g
8.ee
8.cc
=200
8.cc
8.b
8.b
=201
8.cc
8.ee
8.gg
=202
8.gg
8.ff
8dd
16cc
=203
8.b
8.cc
8dd
16g
=204
[8.g
8g]
16e
16e
16e
16e
=205
4.cc
8cc
16b
=206
4.b
8b
16ee
=207
8.ee
8.ee
8dd
16cc
=208
8.cc
8.b
8.cc
=209
4.dd
8.dd
=210
4.ee
8.ff
=211
8.dd
8.dd
8dd
16gg
=212
8gg
16ee
8.ee
8ee
16cc
=213
8.cc
8ccc
16aa
8.aa
=214
8aa
16ff
8.ff
8.ff
=215
4.ff
8.ff
=216
8.ee
8.gg
16gg
16ff
16dd
=217
8.cc
8ee
16dd
48b
48dd
48bb
48b
48dd
48gg
48cc
48gg
48ccc
=218
48cc
48gg
48ccc
48b
48gg
48bb
48cc
48gg
48ccc
48gg#
48bb
48ggg#
48gg#
48bb
48eee
48aa
48eee
48aaa
48aa
48eee
48aaa
48gg#
48eee
48ggg#
48aa
48eee
48aaa
=219
48ee
48gg
48eee
48ee
48gg
48ccc
48ff
48ccc
48fff
48ff
48ccc
48fff
48ee
48ccc
48eee
48ff
48ccc
48fff
8aaa
16fff
=220
8.fff
8.fff
8.fff
=221
4.fff
8.fff
=222
4.fff#
8.fff#
=223
8.ggg
8.fff
8ggg
16aaa
=224
[8.aaa
16aaa]
16aaa
16ggg
16ggg
16fff
16eee
=225
8eee
16ggg
8fff#
16fff
16eee
16fff
16ddd
=226
8.ddd
[4.ggg
=227
4.ggg]
[8.ggg
=228
4.ggg_
8.ggg_
=229
4.ggg_
8.ggg_
=230
4.ggg_
8.ggg_
=231
4.ggg]
8.bb
=232
8.ccc
8.eee
[8.ggg
=233
8.ggg]
8.fff
[8ddd
16ddd]
=234
8.bb
8.ccc
8ddd
16gg
=235
[4.gg
8.gg_
=236
8.gg_
8gg]
16ccc
16ccc#
16ddd
16gg
=237
[4.gg
8.gg]
=238
48gg
48aa
48gg
48ff#
48gg
48aa
48bb
48ccc
48aa
48bb
48ccc
48bb
48aa
48bb
48ccc
48ddd
48eee
48ccc
48ddd
48eee
48ddd
48ccc#
48ddd
48eee
48fff
48ggg
48eee
=239
48fff
48ggg
48fff
48eee
48fff
48eee
48ddd
48eee
48ddd
48ccc
48ddd
48ccc
48bb
48ccc
48bb
48ccc
48ddd
48ccc
48ddd
48eee
48ddd
48eee
48fff
48ggg
48aaa
48ggg
48bbb
=240
48cccc
48bbb
48aaa
48ggg
48fff
48eee
48ddd
48ccc
48bb
48ccc
48bb
48aa
48gg
48ff
48ee
48dd
48cc
48b
48cc
48b
48a
48g
48f
48e
48d
48c
48B
=241
8c
16G
8.G
8ff
16b
=242
8fff
16bb
8ddd
16ccc
8ccc
16r
=243
8ccc
16r
8c
16r
8.r
==
*-
